X:73
T:Jackson's Morning Brush
Z: id:dc-jig-61
M:6/8
L:1/8
K:D Major
F|DEF E2F|DFA AFA|BAB def|gfg ecA|!
DEF E2F|DFA AFA|BAB Bde|fdc d2:|!
e|fed faf|ede fdB|AFA def|gfg e2g|!
fed faf|ede fdB|AFA Ade|fdc d2:|!
e|fdf ece|dcd AFE|DFA def|gfg e2g|!
fdf ece|dcd AFE|DFA Ade|fdc d2:|!
e|fed faf|g3 faf|fed faf|g3 efg|!
fed faf|g3 faf|faf ede|fdc d2:|!